X: 17053
T: Heather Breeze, The
R: reel
M: 4/4
K: Gmajor
DGGA BGAF|DEFd cFAF|DGGA Bcdg|1 fdcA BGAF:|2 fdcA BGG2||
gd~g2 gbag|fc~c2 fgaf|gd~g2 gbag|fdcA BGBd|
gd~g2 gbag|fdef gfga|bage fdeg|fdcA BGAF||

